X:27
T:There's Nae Luck About The House
B:Join The Band
M:C
L:1/8
K:G
P:A
d/|"G"g>e d>B "C"c>d e>f|"G"g>e d>B "D"A2 A>d|\
"G"g>e d>B "C"c>d e>g|"G"d>c "D"B>A "G"G2 G3/2:|
P:B
A/|"G"B>B B>G "C"c>c c>A|"G"B>B B>G "D"A2 A>d|\
"G"B2 B>G "C"c>d e>g|"G"d>c "D"B>A "G"G2 G3/2:|
